X: 126001
T: CARCASSIAN CIRCLE
R: Country Dance.
%R: reel
B: James Kerr "Merry Melodies" v.1 p.26 s.0 #1
Z: 2017 John Chambers <jc:trillian.mit.edu>
M: 2/4
L: 1/16
K: A
E2 |\
AEcB A2c2 | AEcB A2c2 |\
BEdc B2d2 | BcBA GEFG |\
AEcB A2c2 | AEcB A2c2 |\
BcBA GEFG | A2c2A2 :|
|: e2 |\
cAed c2e2 | cAce aecA |\
BEdc B2d2 | BcBA GBed |\
cAed c2e2 | cAce aecA |\
BcBA GEFG | A2c2A2 :|

%%sep 1 1 500
%%sep 1 1 500

